!!!OTL: Einst sa&szlig; ich auf gr&uuml;ner Heide (1-45), S. 114f
!!!id: K1093
**kern
*clefG2
*k[b-]
*F:
{8c
8f
=1
4f
4f
8a
8g
8f
8g
=2
4a
4g}
8r
=3
{8f
8e
8f
=4
4g
4g
8a
8g
8f
8g
=5
4a
4cc
4a}
=6
{8cc
8cc
=7
4.g
8a
8g
8g
8f
8d
=8
2c}
4r
=9
{4c
=10
4.b-
8a
8g
4f
8f
=11
4a
4f}
4r
=12
{4cc
=13
4cc
8a
8cc
8dd
8cc
8b-
8a
=14
4b-
4g}
4r
=15
{4dd
=16
8cc
8a
8f
8a
4a
4g
=17
2f}
4r
=18
{4cc
=19
4cc
8a
8cc
8dd
8cc
8b-
8a
=20
4b-
4g}
4r
=21
{4dd
=22
8cc
8a
8f
8g
4a
4g
=23
2f}
4r
==
*-
!!!minrhy: 8
!!!meters: 4/4 ]  ZZ[8
!!!cut: Einst sa&szlig; ich auf gr&uuml;ner Heide (1-45), S. 114f
!!!reg: Luxemburg
!!!trd: KINTZELE, Guillaume: An der Ucht, Bd. 1, Luxemburg 1926
!!!rhy1: XX  X_X_XXXX  X_X_0
!!!rhy2: XXX  X_X_XXXX  X_X_X_
!!!key: K1093  08  F 4/4 ]  ZZ[8
!!!mod: HEPTATONIK IONISCH]  AMBITUS[9
!!!kad: 23-512121
!!!akz: 133_2333_22-5_423_564_531_564_531_
!!!fot: 'a__b__c__d__e__f__e__fv_
!!!for: 'a__aw_b__c__d__e__d__e__
!!!fok: '/__^a_\__^a_\__\__\__Sd_
!! PHRAS[AUFTAKTIG]
!!!fkt: Traum, Beischlaf
!!!bem: in der Quelle mit einer 2. Stimme versehen
!! KINTZELE
!! PR[30] 2K[3] 2G[14] 3K[10] 3G[4] 4A[3] 4Ü[0] 5A[0] 6K[0] 6G[1]
!! 7K[0] 7G[0] 8A[0] MEHR[0] SI[36] ABS[115] SR[17] SP[19]
!! ST[20] 2k[5] 2g[15] 3k[4] 3g[4] 4d[3] 4ü[0] 5d[2] 6k[2] 6g[0]
!! 7k[0] 7g[0] 8d[0] mehr[0] si[35] dm[+1] sr[20] sp[15]
!! 1F[10] 2F[57] 3F[26] 4F[3] LF[0] 2P[3] 3P[2] 4P[0] TRI[0] DF[6] AB[120]
!! TF[0] U3K[0] U3[0] U4[0] U4Ü[0] U5[0] U6K[0] U6[0] U7K[0] U7[0]
!! N1[2] N2K[0] N2[3] N3K[0] N3[16] N4[20] N4Ü[0] N5[25] N6K[0] N6[16]
!!!n7k: 0] N7[7] O1[8] O2K[0] O2[3] O3K[0] O3[1] HÖ[0
!!!RNB: symbol: &szlig; = sz ligature (UTF-8: ÃŸ)
!!!RNB: symbol: &uuml;  = u umlaut (UTF-8: Ã¼)
